X:1
T:I Poco Allegro
T:Sonata VIII - dalle 12 Sonate Op.1
T:J. B. Loeillet de Gant
%%score 1 2
L:1/8
Q:1/4=116
M:2/2
K:F
V:1 treble nm="Flute" snm="Fl."
V:2 bass nm="Violoncello" snm="Vc."
V:1
"^Poco Allegro" z8 | z8 |: a3 d ^c3 d | efge fd b2- | b2 a4 g2- | g2 f4 ed | ^cA d4 c2 | %7
 d3 d e3 e | fgaf g3 g | a bc'a d'c'ba | ge c'4 b2 | b2 a4 gf | ec f4 e2 |1 f4 x4 :|2 f4 a3 a || %15
 =b3 b c'b ab | ^g3 a f3 =g | e3 f d3 e | c=BcA defd | ^ge a4 g2 | a3 a ^f3 f | gagf e3 e | %22
 fgfe d3 d | efed ^cAde | fabf egae | dfgd cefc | =BdeB ^cA (d2 | d2) ^c2 d2 b2- | b2 a4 g2- | %29
 g2 f4 ed | ^cA d4 c2 | d4 x4 |] %32
V:2
 z8 | z8 |: D,E,F,G, A,3 D, | ^C,2 z C, D,2 z D | CB,CA, B,A,B,G, | A,G,A,F, G,G,, G,2- | %6
 G,2 F,E, D,G,A,A,, | D,E,F,D, ^C,=B,,C,A,, | D,E,F,D, E,D,E,C, | F,G,A,F, B,3 B, | %10
 CB,A,F, DD, G,B, | CC, F,A, B,B,, (B,2 | B,2) A,G, F,B,CC, |1 F,4 x4 :|2 x4 A,=B,CA, || %15
 ^G,^F,G,E, A,=B,CD | EDCA, DC=B,G, | C=B,A,F, B,A,^G,E, | A,2 x A, F,E,D,F, | %19
 E,D,C,A,, F,D,E,E,, | A,,=B,,C,A,, D,_E,D,C, | B,,2 x B, CDCB, | A,3 A, B,CB,A, | %23
 G,3 G, A,G,F,E, | D,2 D4 C2- | C2 B,4 A,2- | A,2 G,4 F,G, | A,G,A,A,, D,2 x D, | %28
 G,B,CC, F,A,B,B,, | E,G,A,A,, D,F,G,G,, | G,2 F,D, A,G,A,A,, | D,4 x4 |] %32

